X:209
T: LIEBER TAG SEH ICH DICH WIEDER
N: F0357
O: Europa, Mitteleuropa, Deutschland
R: Jugend - Lied, Geburtstag
M: 4/4
L: 1/8
K: F
 | c2f2c2AB | cBAGA2F2 |
BAGFd2c2 | cBA2G4 |
c2GBBAGF | c3BB2A2 |
A2d2f2ed | c2=Bdc4 |
c2G2G2A2 | cBBAA2G2 |
c2e2f2c2 | cBA2G4 |
F2F2GEF2 | G3ABAF2 |
d2F2DBAG | F2E2F4

@@@ Tune index: 5640
